X:7570
T:Tink-a-Tink
O:england
C:Sing and Play
M:2/4
L:1/16
K:G
|:G4d2B2|G4d2B2|c2d2 c2B2|A2F2 D4|
G4d2B2|G4d2B2|c2A2G2F2|G8:|
|:d4g2f2|e2d2c2B2|A2B2c2A2|B4G4|
d4g2f2|e2d2c2B2|c2A2G2F2|G8:|


